X:10
T:The Maid of the Mill
F:http://www.vwml.org/record/Moore1/4493/p6
Z:Transcribed by Paul Barber-Riley  March 2016
S:John Moore's Book 1
L:1/8
M:6/8
K:C
A|ded dfd | cde a2 A | Bcd cAc | d3d2:|
f/g/|aba agf | gag g2 f | efg a2 d | (d3c2)A |
GAG g2e | cde a2 A | Bcd cAc | e3e2:|

